X:156
T: Treu bis in den Tod (2-49), S. 134
N: K1131
O: Luxemburg
S: KINTZELE, Guillaume: An der Ucht, Bd. 2, Luxemburg 1927]
N: in der Quelle mit einer 2. Stimme versehen
R: Treue, Trennungsschmerz, Tod]
M: 3/4
L: 1/16
K: F
C2 | F2G2A4A4 | G2F2G4z2
F2 | E2F2B4B4 | A2G2A4z2
c2 | c2c2B3AG2c2 | c2c2A3GF2
A2 | A2A2G3A2Bd2 | c2cBA4z2

